packages/radix-icons/outline/15/grid.svg

<svg width="15" height="15" fill="none" xmlns="http://www.w3.org/2000/svg">
  <path
    fill-rule="evenodd"
    clip-rule="evenodd"
    d="M2 2.5C2 2.22386 2.22386 2 2.5 2H7H8H12.5C12.7761 2 13 2.22386 13 2.5V7V8V12.5C13 12.7761 12.7761 13 12.5 13H8H7H2.5C2.22386 13 2 12.7761 2 12.5V8V7V2.5ZM3 8V12H7V8H3ZM7 7H3V3H7V7ZM8 8V12H12V8H8ZM12 7H8V3H12V7Z"
    fill="currentColor"
  />
</svg>

<svg width="15" height="15" fill="none" xmlns="http://www.w3.org/2000/svg">
  <path
    fill-rule="evenodd"
    clip-rule="evenodd"
    d="M2 2.5a.5.5 0 01.5-.5h10a.5.5 0 01.5.5v10a.5.5 0 01-.5.5h-10a.5.5 0 01-.5-.5v-10zM3 8v4h4V8H3zm4-1H3V3h4v4zm1 1v4h4V8H8zm4-1H8V3h4v4z"
    fill="currentColor"
  />
</svg>
